mastermp/static/images/general/modern-soft-bg_mobile.svg

<svg width="375" height="1843" fill="none" xmlns="http://www.w3.org/2000/svg"><path d="M-1338.86 223.386c0-119.178 103.58-211.909 222.03-198.783l2453.26 271.845c92.38 10.236 165.53 82.763 176.56 175.05l137.09 1147.042c14.22 119.02-78.72 223.73-198.59 223.73h-2590.35c-110.45 0-200-89.54-200-200V223.386z" fill="#2F7EEF"/><path d="M-1292.73 358.879c0-119.175 103.57-211.904 222.02-198.785L997.964 389.219c92.376 10.232 165.536 82.754 176.566 175.04L1286.8 1503.2c14.23 119.03-78.72 223.75-198.59 223.75h-2180.94c-110.46 0-200-89.54-200-200V358.879z" fill="url(#paint0_linear)"/><path d="M-1076.5 511.677c0-119.173 103.566-211.903 222.015-198.784L817.407 498.052c92.379 10.231 165.535 82.753 176.571 175.038l86.682 724.88c14.23 119.02-78.72 223.75-198.588 223.75H-876.5c-110.457 0-200-89.55-200-200V511.677z" fill="url(#paint1_linear)"/><defs><linearGradient id="paint0_linear" x1="1313.55" y1="718.157" x2="-279.84" y2="718.156" gradientUnits="userSpaceOnUse"><stop stop-color="#418FFF"/><stop offset="1" stop-color="#2F7EEF" stop-opacity="0"/></linearGradient><linearGradient id="paint1_linear" x1="1107.41" y1="776.487" x2="-227.758" y2="776.487" gradientUnits="userSpaceOnUse"><stop stop-color="#418FFF"/><stop offset="1" stop-color="#2F7EEF" stop-opacity="0"/></linearGradient></defs></svg>

<svg width="375" height="1843" viewBox="0 0 375 1843" fill="none" xmlns="http://www.w3.org/2000/svg">
<path d="M-1338.86 223.386C-1338.86 104.208 -1235.28 11.477 -1116.83 24.6028L1336.43 296.448C1428.81 306.684 1501.96 379.211 1512.99 471.498L1650.08 1618.54C1664.3 1737.56 1571.36 1842.27 1451.49 1842.27H-1138.86C-1249.31 1842.27 -1338.86 1752.73 -1338.86 1642.27V223.386Z" fill="#2F7EEF"/>
<path d="M-1292.73 358.879C-1292.73 239.704 -1189.16 146.975 -1070.71 160.094L997.964 389.219C1090.34 399.451 1163.5 471.973 1174.53 564.259L1286.8 1503.2C1301.03 1622.23 1208.08 1726.95 1088.21 1726.95H-1092.73C-1203.19 1726.95 -1292.73 1637.41 -1292.73 1526.95V358.879Z" fill="url(#paint0_linear)"/>
<path d="M-1076.5 511.677C-1076.5 392.504 -972.934 299.774 -854.485 312.893L817.407 498.052C909.786 508.283 982.942 580.805 993.978 673.09L1080.66 1397.97C1094.89 1516.99 1001.94 1621.72 882.072 1621.72H-876.5C-986.957 1621.72 -1076.5 1532.17 -1076.5 1421.72V511.677Z" fill="url(#paint1_linear)"/>
<defs>
<linearGradient id="paint0_linear" x1="1313.55" y1="718.157" x2="-279.84" y2="718.156" gradientUnits="userSpaceOnUse">
<stop stop-color="#418FFF"/>
<stop offset="1" stop-color="#2F7EEF" stop-opacity="0"/>
</linearGradient>
<linearGradient id="paint1_linear" x1="1107.41" y1="776.487" x2="-227.758" y2="776.487" gradientUnits="userSpaceOnUse">
<stop stop-color="#418FFF"/>
<stop offset="1" stop-color="#2F7EEF" stop-opacity="0"/>
</linearGradient>
</defs>
</svg>
